!!!COM: de Machuat, Guillaume
!!!OTL: Moult sui de bonne heure nee
!! Guillaume de Machaut, "Moult sui de bonne heure nee" No. 31 from Volume 5 of
!! "Oeuvres Comple\tes" E/ditions de l'Oiseau-lyre (Monaco) -1977; p.31
!! The second ending is encoded.
**kern	**kern
*M2/4	*M2/4
=1	=1
[2G	2d
=2	=2
4G]	8e-
.	8d
8F	8c
8G	[8B-
=3	=3
8r	8B-]
8A	8A
8d	8G
8c	8A
=4	=4
4B-	8A
.	8G
4A	8G
.	8F#
=5	=5
2G	2G
=6	=6
8r	4G
4d	.
.	4r
8d	.
=7	=7
2G	4g
.	8a
.	8g
=8	=8
8B-	4.f
8c	.
8d	.
8c	8e
=9	=9
4B-	4d
4A	8d
.	8c
=10	=10
2B-	8d
.	4c
.	8B-
=11	=11
4r	8B-
.	8c
4A	8d
.	8c
=12	=12
2G	4d
.	4r
=13	=13
2F	8g
.	8f
.	8e
.	8f
=14	=14
2G	4d
.	8d
.	8c
=15	=15
2B-	8d
.	4c
.	8B-
=16	=16
4r	8B-
.	8c
4A	8B-
.	8c
=17	=17
4G	4d
4A	4c
=18	=18
8G	8e-
4D	8d
.	8c
8D	8d
=19	=19
4.G	8B-
.	8c
.	8d
8A	8c
=20	=20
8G	8B-
8F#	8A
8G	8B-
8E	8G
=21	=21
[2F#	2A
=22	=22
2F#]	4A
.	4r
=23	=23
8r	8F#
4d	8G
.	[4A
8c	.
=24	=24
4B-	8A]
.	4G
4A	.
.	8F#
=25	=25
1G	1G
=26	=26
2G	8g
.	8f#
.	8g
.	8e
=27	=27
4.d	8f#
.	8g
.	8f#
8c	8g
=28	=28
4B-	8a
.	8g
4A	8g
.	8f#
=29	=29
[2G	4g
.	4r
=30	=30
2G]	8a
.	8g
.	8g
.	8d
=31	=31
8r	4d
4G	.
.	8e
8G	8f
=32	=32
2F	8g
.	8f
.	8e
.	8f
=33	=33
4G	4d
4A	4c
=34	=34
8G	8e-
4D	8d
.	8c
8D	8d
=35	=35
4.G	8B-
.	8c
.	8d
8A	8c
=36	=36
8G	8B-
8F#	8A
8G	8B-
8E	8G
=37	=37
[2F#	[2A
=38	=38
2F#]	2A]
=39	=39
8r	8F#
4d	8G
.	[4A
8c	.
=40	=40
4B-	8A]
.	4G
4A	.
.	8F#
=41	=41
1G	1G
==	==
*-	*-
